img/logo.svg

<svg width="59" height="51" viewBox="0 0 59 51" fill="none" xmlns="http://www.w3.org/2000/svg">
<path d="M55.7728 34.5823H59L54.7798 29.9538C48.7391 23.3168 40.3815 19.5617 31.6101 19.5617H30.6171H28.4656H27.3899C18.7013 19.5617 10.3436 23.3168 4.2202 29.9538L0 34.5823H3.22721C11.9158 34.5823 20.2735 30.8271 26.3969 24.1901L29.5414 20.7843C27.7209 32.4864 11.9158 51.0001 11.9158 51.0001H29.6241H47.3324C47.3324 51.0001 31.6928 32.7483 29.7069 21.0463L32.6031 24.2775C38.6438 30.8271 47.0014 34.5823 55.7728 34.5823Z" fill="white"/>
<path d="M26.8933 12.75L29.4586 9.95551L32.0238 12.75C36.9887 18.2517 43.9396 21.3083 51.1388 21.3083H53.7868L50.3113 17.4658C45.3464 11.9641 38.3954 8.90756 31.1963 8.90756H30.3688H28.5483H27.7208C20.5217 8.90756 13.6535 11.9641 8.60583 17.4658L5.13037 21.3956H7.77834C14.9775 21.3956 21.9284 18.2517 26.8933 12.75Z" fill="white"/>
<path d="M27.39 3.14383L29.4587 0.873288L31.5274 3.14383C35.5821 7.5976 41.2091 10.1301 47.0842 10.1301H49.2357L46.4222 6.9863C42.3675 2.53253 36.7406 0 30.8654 0H30.2035H28.714H28.052C22.1768 0 16.5499 2.53253 12.4952 6.9863L9.68172 10.1301H11.8332C17.7084 10.1301 23.3353 7.5976 27.39 3.14383Z" fill="white"/>
</svg>

<svg width="59" height="51" fill="none" xmlns="http://www.w3.org/2000/svg"><path d="M55.773 34.582H59l-4.22-4.628c-6.04-6.637-14.398-10.392-23.17-10.392h-4.22c-8.689 0-17.046 3.755-23.17 10.392L0 34.582h3.227c8.689 0 17.046-3.755 23.17-10.392l3.144-3.406C27.721 32.486 11.916 51 11.916 51h35.416s-15.64-18.252-17.625-29.954l2.896 3.232c6.04 6.55 14.398 10.304 23.17 10.304Z" fill="#fff"/><path d="m26.893 12.75 2.566-2.794 2.565 2.794c4.965 5.502 11.916 8.558 19.115 8.558h2.648l-3.476-3.842c-4.965-5.502-11.916-8.558-19.115-8.558h-3.475c-7.2 0-14.068 3.056-19.115 8.558l-3.476 3.93h2.648c7.2 0 14.15-3.144 19.115-8.646Z" fill="#fff"/><path d="m27.39 3.144 2.069-2.27 2.068 2.27c4.055 4.454 9.682 6.986 15.557 6.986h2.152l-2.814-3.144C42.368 2.533 36.741 0 30.865 0h-2.813C22.177 0 16.55 2.533 12.495 6.986L9.682 10.13h2.151c5.875 0 11.502-2.532 15.557-6.986Z" fill="#fff"/></svg>
